X: 1
T: Caisleán An Óir
R: hornpipe
M: 4/4
L: 1/8
K: Gdor
|: GF | DGGF G2 (3A=Bc | dcde f2ga | gedc AdcA | DGGE FEDC |
DGGF G2 (3A=Bc | dcde f2ga | gfdc AdcA | G2GF G2 :|
|: (3A=Bc | dgga _b2 ag | gfde f2ga | gfdc AdcA | DGGE FEDC |
DGGF G2 (3A=Bc | dcde f2ga | gfdc AdcA | G2GF G2 :|


Tune 2170	Setting 11727

